X:1
T:Title
%%score 1 { 2 | 3 }
L:1/8
Q:1/4=140
M:6/4
K:F
V:1 treble nm="Violin, Soprano"
V:2 treble nm="Choir Pad, Gurgaon, 87.87 D"
V:3 bass 
V:1
 A2 G2 B2 A2 C3 G | F6 E6 | B2 c2 B2 D2 E3 G | C12 | D2 E2 F2 G2 F3 D | C6 A6 | A2 G2 G2 D2 E3 F | %7
w: By~Henry~Carson~Clausen,~1918 * * * * *|||||||
 G12 | A2 G2 B2 A2 C3 G | F6 E6 | B2 B2 B2 B2 c3 B | A12 | D2 E2 F2 G2 F3 D | C6 A6 | %14
w: |||||||
 c2 c2 B2 A2 C3 G | F12 |] %16
w: ||
V:2
 C2 B,2 D2 C2 A,3[K:bass] B, | A,6 G,6 | D2 E2 D2 B,2 B,3 B, | A,12 | B,2 B,2 B,2 B,2 B,3 B, | %5
 A,6 C6 | =B,2 B,2 B,2 B,2 B,3 B, | B,12 | C2 B,2 D2 C2 A,3[K:bass] B, | A,6 A,6 | %10
 D2 D2[K:treble] D2 D2 E3 D | C12 | B,2 B,2 B,2 B,2 B,3 B, | A,6 C6 | A,2 A,2 A,2 F,2 A,3 B, | %15
 A,12 |] %16
V:3
 [F,,F,]6 [F,,F,]6 | [C,,C,]6 [C,,C,]6 | [C,,C,]6 [C,,C,]6 | [F,,F,]12 | [B,,,B,,]6 [B,,,B,,]6 | %5
 [F,,F,]6 [F,,F,]6 | [G,,G,]6 [G,,G,]6 | [C,,C,]12 | [F,,F,]6 [F,,F,]6 | [C,,C,]6 [C,,C,]6 | %10
 [C,,C,]6 [C,,C,]6 | [F,,F,]12 | [B,,,B,,]6 [B,,,B,,]6 | [F,,F,]6 [F,,F,]6 | C,6 C,6 | [F,,F,]12 |] %16

